X: 169
T:The Lark In The Morning
% Nottingham Music Database
S:Trad, arr Phil Rowe
M:6/8
K:D
"D"AFA AFA|"G"BGB BdB|"D"AFA Ade|"Bm"fed "G"BdB|
"D"AFA AFA|"G"BGB BdB|"D"def afe|"Bm"fdB BdB::
"D"def afa|"G"baf "D"afe|"D"def afe|"Bm"fdB "G"B2A|
"D"def afa|"G"baf "D"a2f|"G"gag "D"fgf|"Em"edB "G"BdB::
"D"d2f fef|fef fef|"Bm"d2f fef|"Em"edB "G"B2A|
"D"d2f fef|"D"fef fef|"G"gag "D"fgf|"Em"edB "G"BAB::
"D"Add fdd|edd fdB|"D"Add fdd|"Em"edB B2A|
"D"Add fdd|ede f2f|"G"gag "D"fgf|"Em"edB "G"BdB:|<end>
<start>
